resources/svg/headset-o.svg

<svg xmlns="http://www.w3.org/2000/svg" viewBox="0 0 15 15" fill="none"><path d="M12.5 12.5C13.6046 12.5 14.5 11.6046 14.5 10.5V8.5C14.5 7.39543 13.6046 6.5 12.5 6.5C11.9477 6.5 11.5 6.94772 11.5 7.5V11.5C11.5 12.0523 11.9477 12.5 12.5 12.5ZM12.5 12.5C12.5 13.6046 11.6046 14.5 10.5 14.5H8M14.5 10V7.5C14.5 3.63401 11.366 0.5 7.5 0.5C3.63401 0.5 0.5 3.63401 0.5 7.5V10M2.5 12.5C3.05228 12.5 3.5 12.0523 3.5 11.5V7.5C3.5 6.94772 3.05228 6.5 2.5 6.5C1.39543 6.5 0.5 7.39543 0.5 8.5V10.5C0.5 11.6046 1.39543 12.5 2.5 12.5Z" stroke="black"/></svg>

<svg xmlns="http://www.w3.org/2000/svg" viewBox="0 0 15 15" fill="none"><path d="M12.5 12.5a2 2 0 002-2v-2a2 2 0 00-2-2 1 1 0 00-1 1v4a1 1 0 001 1zm0 0a2 2 0 01-2 2H8m6.5-4.5V7.5a7 7 0 10-14 0V10m2 2.5a1 1 0 001-1v-4a1 1 0 00-1-1 2 2 0 00-2 2v2a2 2 0 002 2z" stroke="currentColor"/></svg>
